X: 16012
T: Great North Run, The
R: barndance
M: 4/4
K: Gmajor
|:G2G2 FGAF|GABc d2Bd|e2ce dBGB|ABAG ~E2D2|
G2G2 FGAF|GABc d2Bd|e2ce dBGB|1 A2~F2 G2D2:|2 A2~F2 G2Bd||
|:g2eg f2 df|e2ce d4|e2ce dBGB|ABAG ~E2D2|
G2G2 FGAF|GABc d2Bd|e2ce dBGB|1 A2~F2 G2Bd:|2 A2~F2 G2D2||

